src/images/arrow-left.svg

<svg fill="none" height="23" viewBox="0 0 15 23" width="15" xmlns="http://www.w3.org/2000/svg"><path d="m1.56252 10.0391 10.17718-9.515417c.2775-.259412.6405-.407964 1.0202-.417474 1.4451-.0361961 2.1493 1.750051 1.0683 2.709721l-8.09673 7.18847c-.89622.7957-.89622 2.1955 0 2.9912l8.09673 7.1885c1.081.9596.3768 2.7459-1.0683 2.7097-.3797-.0095-.7427-.1581-1.0202-.4175l-10.17718-9.5154c-.845442-.7905-.845442-2.1313 0-2.9218z" fill="#fc732c"/></svg>

<svg width="15" height="23" viewBox="0 0 15 23" fill="none" xmlns="http://www.w3.org/2000/svg">
<path d="M1.56252 10.0391L11.7397 0.523683C12.0172 0.264271 12.3802 0.115719 12.7599 0.106209C14.205 0.0700129 14.9092 1.85626 13.8282 2.81593L5.73147 10.0044C4.83525 10.8001 4.83525 12.1999 5.73147 12.9956L13.8282 20.1841C14.9092 21.1437 14.205 22.93 12.7599 22.8938C12.3802 22.8843 12.0172 22.7357 11.7397 22.4763L1.56252 12.9609C0.717078 12.1704 0.717078 10.8296 1.56252 10.0391Z" fill="#FC732C"/>
</svg>
